icons/tb_fill.svg

<svg width="48" height="48" viewBox="0 0 48 48" fill="none" xmlns="http://www.w3.org/2000/svg">
<path fill-rule="evenodd" clip-rule="evenodd" d="M23 20.5V6.00013C23 6.00004 23 6 24 6C23.9999 6 24 6 24 6C25 6 25 6.00004 25 6.00013V20.5C25 21.8977 25.5641 22.4421 26.0039 22.6987C26.053 22.7273 26.1024 22.7533 26.1516 22.7769C26.1506 22.6563 26.1492 22.5306 26.1478 22.4003C26.11 18.8716 26.0364 12 31.4753 12C38.9259 12 44.2478 38.0065 41.0547 40.6602C37.8615 43.3139 31.4753 41.7217 28.2821 38.5372C25.7041 35.9662 25.9272 29.9586 26.0873 25.646C26.0971 25.383 26.1066 25.1263 26.1153 24.8771C25.79 24.7962 25.3959 24.6595 24.9962 24.4263C24.6398 24.2184 24.2975 23.9442 24 23.5918C23.7025 23.9442 23.3602 24.2184 23.0038 24.4263C22.6041 24.6595 22.21 24.7962 21.8848 24.8771C21.8934 25.1263 21.9029 25.383 21.9127 25.646C22.0728 29.9585 22.2959 35.9662 19.7179 38.5372C16.5247 41.7217 10.1385 43.3139 6.94536 40.6602C3.75222 38.0065 9.07413 12 16.5247 12C21.9636 12 21.89 18.8717 21.8522 22.4003C21.8508 22.5306 21.8494 22.6563 21.8484 22.7769C21.8976 22.7533 21.947 22.7273 21.9961 22.6987C22.4359 22.4421 23 21.8977 23 20.5ZM32 19C33.1046 19 34 18.1046 34 17C34 15.8954 33.1046 15 32 15C30.8954 15 30 15.8954 30 17C30 18.1046 30.8954 19 32 19ZM34 30C34 31.1046 33.1046 32 32 32C30.8954 32 30 31.1046 30 30C30 28.8954 30.8954 28 32 28C33.1046 28 34 28.8954 34 30ZM37 29C38.1046 29 39 28.1046 39 27C39 25.8954 38.1046 25 37 25C35.8954 25 35 25.8954 35 27C35 28.1046 35.8954 29 37 29ZM34 23C34 24.6569 32.6569 26 31 26C29.3431 26 28 24.6569 28 23C28 21.3431 29.3431 20 31 20C32.6569 20 34 21.3431 34 23Z" fill="black"/>
</svg>

<svg
  xmlns="http://www.w3.org/2000/svg"
  width="24"
  height="24"
  viewBox="0 0 24 24"
  fill="none"
  stroke="currentColor"
  stroke-width="2"
  stroke-linecap="round"
  stroke-linejoin="round"
>
  <path
    fill-rule="evenodd"
    d="M23 20.5V6h2v14.5c0 1.398.564 1.942 1.004 2.199q.073.042.148.078l-.004-.377c-.038-3.528-.112-10.4 5.327-10.4 7.45 0 12.773 26.007 9.58 28.66-3.193 2.654-9.58 1.062-12.773-2.123-2.578-2.57-2.355-8.578-2.195-12.891q.016-.395.028-.769a4.3 4.3 0 0 1-1.119-.45 3.8 3.8 0 0 1-.996-.835c-.297.352-.64.626-.996.834-.4.234-.794.37-1.12.451l.029.769c.16 4.313.383 10.32-2.195 12.891-3.193 3.185-9.58 4.777-12.773 2.123S9.075 12 16.525 12c5.439 0 5.365 6.872 5.327 10.4l-.004.377q.075-.036.148-.078c.44-.257 1.004-.801 1.004-2.199m9-1.5a2 2 0 1 0 0-4 2 2 0 0 0 0 4m2 11a2 2 0 1 1-4 0 2 2 0 0 1 4 0m3-1a2 2 0 1 0 0-4 2 2 0 0 0 0 4m-3-6a3 3 0 1 1-6 0 3 3 0 0 1 6 0"
    clip-rule="evenodd"
  />
</svg>
